public/navBar/home.svg

<svg width="24" height="24" viewBox="0 0 24 24" fill="none" xmlns="http://www.w3.org/2000/svg">
<path d="M9.06165 4.82633L3.23911 9.92134C2.7398 10.3583 3.07458 11.1343 3.76238 11.1343C4.18259 11.1343 4.52324 11.4489 4.52324 11.8371V15.0806C4.52324 17.871 4.52324 19.2662 5.46176 20.1331C6.40029 21 7.91082 21 10.9319 21H13.0681C16.0892 21 17.5997 21 18.5382 20.1331C19.4768 19.2662 19.4768 17.871 19.4768 15.0806V11.8371C19.4768 11.4489 19.8174 11.1343 20.2376 11.1343C20.9254 11.1343 21.2602 10.3583 20.7609 9.92134L14.9383 4.82633C13.5469 3.60878 12.8512 3 12 3C11.1488 3 10.4531 3.60878 9.06165 4.82633Z" stroke="#A09F9F" stroke-width="1.5" stroke-linecap="round" stroke-linejoin="round"/>
<path d="M12 16H12.009" stroke="#A09F9F" stroke-width="2" stroke-linecap="round" stroke-linejoin="round"/>
</svg>

<svg xmlns="http://www.w3.org/2000/svg" width="24" height="24" fill="none"><path stroke="#A09F9F" stroke-linecap="round" stroke-linejoin="round" stroke-width="1.5" d="M9.062 4.826 3.239 9.921c-.5.437-.164 1.213.523 1.213.42 0 .761.315.761.703v3.244c0 2.79 0 4.185.939 5.052C6.4 21 7.91 21 10.932 21h2.136c3.021 0 4.532 0 5.47-.867.939-.867.939-2.262.939-5.052v-3.244c0-.388.34-.703.76-.703.688 0 1.023-.776.524-1.213l-5.823-5.095C13.547 3.61 12.851 3 12 3s-1.547.609-2.938 1.826Z"/><path stroke="#A09F9F" stroke-linecap="round" stroke-linejoin="round" stroke-width="2" d="M12 16h.009"/></svg>
